snaxkrew/imgs/ranks/officer.svg

<?xml version="1.0" encoding="UTF-8" standalone="no"?>
<svg xmlns:rdf="http://www.w3.org/1999/02/22-rdf-syntax-ns#" style="enable-background:new 0 0 45 45" xmlns="http://www.w3.org/2000/svg" xml:space="preserve" version="1.1" xmlns:cc="http://creativecommons.org/ns#" viewBox="0 0 45 45" xmlns:dc="http://purl.org/dc/elements/1.1/"><defs><clipPath id="a" clipPathUnits="userSpaceOnUse"><path d="m0 36h36v-36h-36v36z"/></clipPath></defs><g transform="matrix(1.25,0,0,-1.25,0,45)"><g clip-path="url(#a)"><g transform="translate(7.32 25)"><path d="m0 0c-5.72-9.08 0.958-18 0.958-18s2.88 0.442 6.88 5.2c3.96 4.76-7.84 12.8-7.84 12.8" fill="#662113"/></g><g transform="translate(28.7 25)"><path d="m0 0c5.72-9.08-0.958-18-0.958-18s-2.87 0.442-6.88 5.2c-3.96 4.76 7.84 12.8 7.84 12.8" fill="#662113"/></g><g transform="translate(15.2 4.44)"><path d="m0 0c-0.123 0.229-0.317 0.384-0.531 0.496-2.03 2.17-0.589 4.72-0.589 4.72 0 0.703 1.27 2.54 0 2.54l-1.27-1.28c-1.27-1.27-1.27-5.08-1.27-5.08h-2.54c-0.703 0-1.27-0.569-1.27-1.27s0.569-1.27 1.27-1.27h1.41l-0.282-0.154c-0.63-0.35-0.86-1.12-0.53-1.74 0.34-0.61 1.11-0.84 1.73-0.51l3.36 1.82c0.614 0.33 0.842 1.1 0.51 1.72" fill="#ffac33"/></g><g transform="translate(20.8 4.44)"><path d="m0 0c0.123 0.229 0.317 0.384 0.53 0.496 2.03 2.17 0.589 4.72 0.589 4.72 0 0.703-1.27 2.54 0 2.54l1.27-1.28c1.27-1.27 1.27-5.08 1.27-5.08h2.54c0.704 0 1.27-0.569 1.27-1.27s-0.567-1.27-1.27-1.27h-1.41l0.281-0.154c0.63-0.35 0.86-1.12 0.53-1.74-0.34-0.61-1.11-0.84-1.73-0.51l-3.36 1.82c-0.614 0.33-0.843 1.1-0.51 1.72" fill="#ffac33"/></g><g transform="translate(28.3 24.7)"><path d="m0 0c2.89 6.09 0 10.5 0 10.5s-5.78-0.959-6.74-2.88c-1.22-2.38 6.74-7.62 6.74-7.62" fill="#662113"/></g><g transform="translate(29.6 23.3)"><path d="m0 0c0-10.3-3.15-20.6-11.6-20.6-8.41 0-11.6 10.3-11.6 20.6s5.18 10.7 11.6 10.7 11.6-0.4 11.6-10.7" fill="#662113"/></g><g transform="translate(27.7 18.3)"><path d="m0 0c0-10.3-7.77-14.6-9.67-14.6-1.89 0-9.67 4.3-9.67 14.6s19.3 10.3 19.3 0" fill="#c1694f"/></g><g transform="translate(7.72 24.7)"><path d="m0 0c-2.89 6.09 0 10.5 0 10.5s5.78-0.959 6.75-2.88c1.21-2.38-6.75-7.62-6.75-7.62" fill="#662113"/></g><g transform="translate(14.9 31.6)"><path d="m0 0c-4.23 1.58-7.21 3.62-7.21 3.62s-2.08-3.22-0.927-7.93c0.446-2.14 1.94-4.2 3.9-4.66 2.64-0.627 7.3 0.049 7.3 3.96 0.01 2.7-1.06 4.26-3.06 5.01" fill="#c1694f"/></g><g transform="translate(21.1 31.6)"><path d="m0 0c4.23 1.58 7.21 3.62 7.21 3.62s2.08-3.22 0.928-7.93c-0.446-2.14-1.94-4.2-3.9-4.66-2.64-0.627-7.3 0.049-7.3 3.96 0 2.7 1.07 4.25 3.07 5" fill="#c1694f"/></g><g transform="translate(16.1 27.6)"><path d="m0 0c0-2.12-1.72-3.83-3.83-3.83-2.12 0-3.83 1.72-3.83 3.83 0 2.12 1.72 3.83 3.83 3.83s3.83-1.71 3.83-3.83" fill="#ffd983"/></g><g transform="translate(27.6 27.6)"><path d="m0 0c0-2.12-1.72-3.83-3.83-3.83-2.12 0-3.83 1.72-3.83 3.83 0 2.12 1.72 3.83 3.83 3.83s3.83-1.71 3.83-3.83" fill="#ffd983"/></g><g transform="translate(14.2 27.6)"><path d="m0 0c0-1.06-0.858-1.92-1.92-1.92s-1.92 0.858-1.92 1.92 0.858 1.92 1.92 1.92 1.92-0.86 1.92-1.92" fill="#292f33"/></g><g transform="translate(25.7 27.6)"><path d="m0 0c0-1.06-0.858-1.92-1.92-1.92s-1.92 0.858-1.92 1.92 0.858 1.92 1.92 1.92 1.92-0.86 1.92-1.92" fill="#292f33"/></g><g transform="translate(20.9 23.3)"><path d="m0 0c0-2.38-2.88-3.35-2.88-3.35s-2.88 0.972-2.88 3.35 2.88 3.35 2.88 3.35 2.88-0.97 2.88-3.35" fill="#ffcc4d"/></g><g transform="translate(20.9 23.3)"><path d="m0 0c0-2.38-2.88-3.35-2.88-3.35s-2.88 0.972-2.88 3.35c1.2-1.2 2.88-1.44 2.88-1.44s1.68 0.239 2.88 1.44" fill="#f4900c"/></g></g></g></svg>

<?xml version="1.0" encoding="UTF-8" standalone="no"?><svg xmlns:dc="http://purl.org/dc/elements/1.1/" xmlns:cc="http://creativecommons.org/ns#" xmlns:rdf="http://www.w3.org/1999/02/22-rdf-syntax-ns#" xmlns:svg="http://www.w3.org/2000/svg" xmlns="http://www.w3.org/2000/svg" viewBox="0 0 45 45" style="enable-background:new 0 0 45 45;" xml:space="preserve" version="1.1" id="svg2"><metadata id="metadata8"><rdf:RDF><cc:Work rdf:about=""><dc:format>image/svg+xml</dc:format><dc:type rdf:resource="http://purl.org/dc/dcmitype/StillImage"/></cc:Work></rdf:RDF></metadata><defs id="defs6"><clipPath id="clipPath16" clipPathUnits="userSpaceOnUse"><path id="path18" d="M 0,36 36,36 36,0 0,0 0,36 Z"/></clipPath></defs><g transform="matrix(1.25,0,0,-1.25,0,45)" id="g10"><g id="g12"><g clip-path="url(#clipPath16)" id="g14"><g transform="translate(7.3169,25)" id="g20"><path id="path22" style="fill:#662113;fill-opacity:1;fill-rule:nonzero;stroke:none" d="m 0,0 c -5.723,-9.083 0.958,-18 0.958,-18 0,0 2.875,0.442 6.875,5.2 C 11.834,-8.042 0,0 0,0"/></g><g transform="translate(28.6592,25)" id="g24"><path id="path26" style="fill:#662113;fill-opacity:1;fill-rule:nonzero;stroke:none" d="m 0,0 c 5.723,-9.083 -0.958,-18 -0.958,-18 0,0 -2.874,0.442 -6.875,5.2 C -11.834,-8.042 0,0 0,0"/></g><g transform="translate(15.2026,4.4434)" id="g28"><path id="path30" style="fill:#ffac33;fill-opacity:1;fill-rule:nonzero;stroke:none" d="m 0,0 c -0.123,0.229 -0.317,0.384 -0.531,0.496 -2.032,2.172 -0.589,4.717 -0.589,4.717 0,0.703 1.272,2.544 0,2.544 L -2.392,6.484 C -3.664,5.213 -3.664,1.396 -3.664,1.396 l -2.544,0 c -0.703,0 -1.272,-0.569 -1.272,-1.273 0,-0.701 0.569,-1.27 1.272,-1.27 l 1.408,0 -0.282,-0.154 C -5.7,-1.635 -5.929,-2.406 -5.596,-3.026 -5.261,-3.643 -4.49,-3.874 -3.872,-3.54 l 3.358,1.816 C 0.104,-1.391 0.332,-0.619 0,0"/></g><g transform="translate(20.7988,4.4434)" id="g32"><path id="path34" style="fill:#ffac33;fill-opacity:1;fill-rule:nonzero;stroke:none" d="m 0,0 c 0.123,0.229 0.317,0.384 0.53,0.496 2.034,2.172 0.589,4.717 0.589,4.717 0,0.703 -1.271,2.544 0,2.544 L 2.392,6.484 C 3.664,5.213 3.664,1.396 3.664,1.396 l 2.544,0 c 0.704,0 1.271,-0.569 1.271,-1.273 0,-0.701 -0.567,-1.27 -1.271,-1.27 l -1.408,0 0.281,-0.154 C 5.701,-1.635 5.929,-2.406 5.596,-3.026 5.26,-3.643 4.49,-3.874 3.87,-3.54 L 0.514,-1.724 C -0.104,-1.391 -0.333,-0.619 0,0"/></g><g transform="translate(28.2783,24.7085)" id="g36"><path id="path38" style="fill:#662113;fill-opacity:1;fill-rule:nonzero;stroke:none" d="m 0,0 c 2.891,6.092 0,10.542 0,10.542 0,0 -5.781,-0.959 -6.744,-2.875 C -7.963,5.242 0,0 0,0"/></g><g transform="translate(29.5625,23.2622)" id="g40"><path id="path42" style="fill:#662113;fill-opacity:1;fill-rule:nonzero;stroke:none" d="m 0,0 c 0,-10.297 -3.152,-20.595 -11.563,-20.595 -8.409,0 -11.562,10.298 -11.562,20.595 0,10.298 5.177,10.654 11.562,10.654 C -5.176,10.654 0,10.298 0,0"/></g><g transform="translate(27.666,18.2617)" id="g44"><path id="path46" style="fill:#c1694f;fill-opacity:1;fill-rule:nonzero;stroke:none" d="m 0,0 c 0,-10.297 -7.774,-14.595 -9.666,-14.595 -1.892,0 -9.666,4.298 -9.666,14.595 C -19.332,10.298 0,10.298 0,0"/></g><g transform="translate(7.7217,24.7085)" id="g48"><path id="path50" style="fill:#662113;fill-opacity:1;fill-rule:nonzero;stroke:none" d="m 0,0 c -2.891,6.092 0,10.542 0,10.542 0,0 5.782,-0.959 6.746,-2.875 C 7.964,5.242 0,0 0,0"/></g><g transform="translate(14.9287,31.6265)" id="g52"><path id="path54" style="fill:#c1694f;fill-opacity:1;fill-rule:nonzero;stroke:none" d="m 0,0 c -4.227,1.584 -7.207,3.624 -7.207,3.624 0,0 -2.076,-3.221 -0.927,-7.926 0.446,-2.137 1.94,-4.196 3.904,-4.662 2.636,-0.627 7.301,0.049 7.301,3.963 C 3.071,-2.306 1.997,-0.749 0,0"/></g><g transform="translate(21.0713,31.6265)" id="g56"><path id="path58" style="fill:#c1694f;fill-opacity:1;fill-rule:nonzero;stroke:none" d="m 0,0 c 4.227,1.584 7.206,3.624 7.206,3.624 0,0 2.076,-3.221 0.928,-7.926 -0.446,-2.137 -1.94,-4.196 -3.903,-4.662 -2.637,-0.627 -7.302,0.049 -7.302,3.963 0,2.695 1.074,4.252 3.071,5.001"/></g><g transform="translate(16.0835,27.5835)" id="g60"><path id="path62" style="fill:#ffd983;fill-opacity:1;fill-rule:nonzero;stroke:none" d="m 0,0 c 0,-2.117 -1.716,-3.833 -3.833,-3.833 -2.117,0 -3.834,1.716 -3.834,3.833 0,2.117 1.717,3.833 3.834,3.833 C -1.716,3.833 0,2.117 0,0"/></g><g transform="translate(27.583,27.5835)" id="g64"><path id="path66" style="fill:#ffd983;fill-opacity:1;fill-rule:nonzero;stroke:none" d="m 0,0 c 0,-2.117 -1.716,-3.833 -3.833,-3.833 -2.117,0 -3.833,1.716 -3.833,3.833 0,2.117 1.716,3.833 3.833,3.833 C -1.716,3.833 0,2.117 0,0"/></g><g transform="translate(14.1665,27.5835)" id="g68"><path id="path70" style="fill:#292f33;fill-opacity:1;fill-rule:nonzero;stroke:none" d="m 0,0 c 0,-1.059 -0.858,-1.917 -1.917,-1.917 -1.058,0 -1.916,0.858 -1.916,1.917 0,1.058 0.858,1.917 1.916,1.917 C -0.858,1.917 0,1.058 0,0"/></g><g transform="translate(25.667,27.5835)" id="g72"><path id="path74" style="fill:#292f33;fill-opacity:1;fill-rule:nonzero;stroke:none" d="m 0,0 c 0,-1.059 -0.858,-1.917 -1.917,-1.917 -1.059,0 -1.917,0.858 -1.917,1.917 0,1.058 0.858,1.917 1.917,1.917 C -0.858,1.917 0,1.058 0,0"/></g><g transform="translate(20.875,23.271)" id="g76"><path id="path78" style="fill:#ffcc4d;fill-opacity:1;fill-rule:nonzero;stroke:none" d="m 0,0 c 0,-2.382 -2.875,-3.354 -2.875,-3.354 0,0 -2.875,0.972 -2.875,3.354 0,2.382 2.875,3.354 2.875,3.354 C -2.875,3.354 0,2.382 0,0"/></g><g transform="translate(20.875,23.271)" id="g80"><path id="path82" style="fill:#f4900c;fill-opacity:1;fill-rule:nonzero;stroke:none" d="m 0,0 c 0,-2.382 -2.875,-3.354 -2.875,-3.354 0,0 -2.875,0.972 -2.875,3.354 1.198,-1.198 2.875,-1.437 2.875,-1.437 0,0 1.677,0.239 2.875,1.437"/></g></g></g></g></svg>
